X: 1
T: Fasten The Leg In Her
M: 6/8
L: 1/8
R: jig
K: Gmaj
c|:B3BAB|GBd gdB|A3AGA|Bee dBA|
BcB BAB|GBd g3|efg eag|[1fdd d2c:|[2fdd def||
|:g3fgf|efe dBA|G3AGA|Bee def|
gag fgf|efe d3|efg eag|[1fdd def:|[2fdd dcA|]
